Newaita-dark/.DP/22/skype-status-hidden.svg

<svg xmlns="http://www.w3.org/2000/svg" xmlns:xlink="http://www.w3.org/1999/xlink" width="22px" height="22px" viewBox="0 0 22 22" version="1.1">
<g id="surface1">
<path style=" stroke:none;fill-rule:nonzero;fill:rgb(93.333334%,93.333334%,93.333334%);fill-opacity:1;" d="M 7.375 2.886719 C 5.21875 2.886719 3.484375 4.621094 3.484375 6.777344 C 3.484375 7.429688 3.644531 8.039062 3.925781 8.578125 C 3.640625 9.363281 3.484375 10.210938 3.484375 11.097656 C 3.484375 15.167969 6.761719 18.441406 10.832031 18.441406 C 11.148438 18.441406 11.460938 18.421875 11.769531 18.382812 C 12.445312 18.960938 13.324219 19.308594 14.289062 19.308594 C 16.441406 19.308594 18.175781 17.574219 18.175781 15.417969 C 18.175781 14.765625 18.019531 14.152344 17.738281 13.617188 C 18.023438 12.828125 18.175781 11.984375 18.175781 11.097656 C 18.175781 7.027344 14.902344 3.75 10.832031 3.75 C 10.511719 3.75 10.203125 3.773438 9.894531 3.808594 C 9.21875 3.234375 8.335938 2.886719 7.375 2.886719 Z M 8.984375 8.246094 C 9.21875 8.246094 9.453125 8.335938 9.628906 8.515625 L 10.914062 9.800781 L 12.203125 8.515625 C 12.558594 8.160156 13.132812 8.160156 13.488281 8.515625 C 13.84375 8.871094 13.84375 9.445312 13.488281 9.800781 L 12.203125 11.085938 L 13.488281 12.375 C 13.84375 12.730469 13.84375 13.304688 13.488281 13.660156 C 13.132812 14.015625 12.558594 14.015625 12.203125 13.660156 L 10.914062 12.375 L 9.628906 13.660156 C 9.273438 14.015625 8.699219 14.015625 8.34375 13.660156 C 7.988281 13.304688 7.988281 12.730469 8.34375 12.375 L 9.628906 11.085938 L 8.34375 9.800781 C 7.988281 9.445312 7.988281 8.871094 8.34375 8.515625 C 8.519531 8.335938 8.753906 8.246094 8.984375 8.246094 Z M 8.984375 8.246094 "/>
</g>
</svg>

<svg xmlns="http://www.w3.org/2000/svg" width="22pt" height="22pt" viewBox="0 0 22 22"><path d="M7.375 2.887a3.881 3.881 0 0 0-3.89 3.89c0 .653.16 1.266.44 1.801a7.363 7.363 0 0 0-.44 2.52 7.329 7.329 0 0 0 7.347 7.343c.316 0 .629-.02.934-.058.68.578 1.558.926 2.523.926a3.88 3.88 0 0 0 3.887-3.891c0-.652-.156-1.266-.438-1.805a7.322 7.322 0 0 0 .438-2.515 7.329 7.329 0 0 0-7.344-7.348c-.316 0-.629.023-.937.059a3.883 3.883 0 0 0-2.52-.922zm1.61 5.36c.234 0 .464.089.644.269L10.914 9.8l1.29-1.285a.9.9 0 0 1 1.284 0 .908.908 0 0 1 0 1.285l-1.285 1.285 1.285 1.289a.908.908 0 1 1-1.285 1.285l-1.289-1.285L9.63 13.66a.908.908 0 0 1-1.285 0 .9.9 0 0 1 0-1.285l1.285-1.29-1.285-1.284a.9.9 0 0 1 0-1.285c.176-.18.41-.27.64-.27zm0 0" fill="#bdbdbd"/></svg>
